X:277
T: ES IST SO STILL GEWORDEN
N: B0755
O: Europa, Mitteleuropa, Deutschland
R: Tageszeiten - Lied, Abend, religioes
M: 4/4
L: 1/8
K: Ab
E2 | A2G2A2B2 | G3FE2
B2 | c2B2A2GF | E4z2
E2 | A2G2A2B2 | G3FE2
B2 | c2B2A2GF | E4z2
e2 | d2c2B2A2 | d3cB2
c2 | d3cB2A2 | B4z2
E2 | A2B2c2d2 | e2dcB2
d2 | c2B2A2G2 | A4z2

